X:231
T:B231-  In a desert in Greenland
Q:1/4=120
L:1/4
M:3/4
K:D
d/2e/2|ff(e/2d/2)|eef/2e/2|dde/2f/2|A2d/2c/2|\
BAF/2G/2|AB=c|B3/2B/2 f/2e/2|e2d/2e/2|\
ff(e/2d/2)|ee/2e/2 f/2e/2|dde/2f/2|A2d/2c/2|\
BAF/2G/2|AB=c/2c/2|B3/2B/2 f/2e/2|e2||:(e/2f/2)|\
gg (f/2e/2)|f e/2f/2 (A/2B/2)|d d/2f/2 e/2d/2|\
e3/2 d/2B|d/2d/2 A/2B/2 A3/4F/4|\
A3/2B/2A|d d/2f/2 e/2d/2|e(e/4f/4g/2) (f/2e/2)|\
ff/2g/2 e3/4d/4|d2:|]

